X:749
T:Neil Gow's Farewell to Whiskey
R:Country Dance
C:Niel Gow
B:The Athole Collection
M:C|
L:1/8
Q:1/4=120
K:G
B,/A,/|G,G/A/ B/A/G/B/ AE EF/G/|DG/A/ B/A/G/B/ dBB>d|
e/f/g/f/ e/d/B/d/ c/B/A/G/ A>B|D/E/G/A/ B/A/G/A/ BGG:|
|:B/c/|dB GB/d/ c/B/A/G/ AB/c/|dBgB dgg>d|
e/f/g/f/ e/d/B/d/ c/B/A/G/ A/c/B/A/|D/E/G/A/ B/A/G/A/ BGG:|

